X:1
T:CANADIAN-RAG
T:CANADIAN-RAG
T:J. BETTY
T:W. S. 220
T:W. S. 220
C:J. BETTY
Z:W. S. 220
%%score { ( 1 3 ) | 2 }
L:1/8
Q:1/4=90
M:2/4
K:D
V:1 treble nm="Piano" snm="Pno."
V:3 treble 
V:2 bass 
V:1
!f! A/>^G/A/>B/ A/>G/A/>B/ | A!^!E !^!A,2 | A/>^G/A/>B/ A/>G/A/>B/ | A!^!F !^!A,2 | %4
 [CA] !>![A,CA]2 [B,D^GB] | [CE=Gc] z !^![Acea] z |:!p! [A,DF] [A,D^E]2 [A,DF]- | %7
 [A,DF][A,E][A,D][A,E] | [A,DF] [DFA]2 [DFB]- | [DFB] [FBd]2 [DFB] | [A,DF] [A,D^E]2 [A,DF]- | %11
 [A,DF][A,E][A,D][A,E] | [A,DF] [DFA]2 [DFB]- | [DFB] [FBd]2 [DFB] | [A,EG] [A,EG]2 [A,^DF] | %15
 [A,EG] [A,CE]2 [A,DF] | [A,EG] [A,EG]2 [A,^DF] | [A,EG] [A,CE]2 [A,DF] | %18
 [A,EG][A,^DF][A,EG][A,FA] | [CGB] [GBe]2 [EGc] ||1 [CGB] [GBe]2 [CGB] | %21
!f! [CGA]!^![CA]!^![B,D^G]!^![A,E=G] :|2 [CGB] [GBe]2 [CGc] | %23
!ff! [DFd]!^![DFd]!^![^CG^c]!^![=CA=c] |:[K:G] [DGB] [^CG^A]2 [DGB] | [B,DF] z [B,E] z | %26
 [B,D] [B,E]2 [B,G] | [B,E] z z2 | [DGB] [^CG^A]2 [DGB] | [B,DF] z [B,E] z | [B,D] [B,E]2 [B,DG] | %31
 [Dc]4 | [CDB] [CDA]2 [CD^G] | [CDA] z !^![FAd] z | [B,DA] [B,DG]2 [B,DF] | %35
 [B,DG] z !^![DGBd] z ||1 [A,DF] [A,D^E]2 [A,DF] | [A,^CEA]2 [A,CE]2 | [A,D] !^![Fcd]2 !^![Gde] | %39
 [Acf] z !^![FAd] z :|2 [A,CE] [A,CE]2 [_EAc] | [B,B]2 [Dd]2 | [E^ce] [E=ce]2 [CDF] | %43
 [B,DG] z !^![GBdg] z |:[K:D]!p! [A,DF] [A,D^E]2 [A,DF]- | [A,DF][A,E][A,D][A,E] | %46
 [A,DF] [DFA]2 [DFB]- | [DFB] [FBd]2 [DFB] | [A,DF] [A,D^E]2 [A,DF]- | [A,DF][A,E][A,D][A,E] | %50
 [A,DF] [DFA]2 [DFB]- | [DFB] [FBd]2 [DFB] | [A,EG] [A,EG]2 [A,^DF] | [A,EG] [A,CE]2 [A,DF] | %54
 [A,EG] [A,EG]2 [A,^DF] | [A,EG] [A,CE]2 [A,DF] | [A,EG][A,^DF][A,EG][A,FA] | %57
 [CGB] [GBe]2 [EGc] ||1 [CGB] [GBe]2 [CGB] |!f! [CGA]!^![CA]!^![B,D^G]!^![A,E=G] :|2 %60
 [CGB] [GBe]2 [CGc] | [DFd] z !^![dfad'] z |] %62
V:2
 !>![A,CG]2 !>![A,CG]2 | [A,CG]!^!E, !^!A,,2 | !>![A,DF]2 !>![A,DF]2 | [A,DF]!^!F, !^!A,,2 | %4
 [A,,A,][G,,G,][F,,F,][=F,,=F,] | [E,,E,] z !^![A,,,A,,] z |: [D,,D,]2 [A,,,A,,]2 | %7
 [D,,D,]2 [A,,,A,,]2 | [D,,D,]2 [A,,,A,,]2 | [D,,D,]2 [A,,,A,,]2 | [D,,D,]2 [A,,,A,,]2 | %11
 [D,,D,]2 [A,,,A,,]2 | [D,,D,]2 [A,,,A,,]2 | [D,,D,]2 [A,,,A,,]2 | [C,,C,]2 [A,,,A,,]2 | %15
 [C,,C,]2 [A,,,A,,]2 | [C,,C,]2 [A,,,A,,]2 | [C,,C,]2 [A,,,A,,]2 | [C,,C,]2 [A,,,A,,]2 | %19
 [C,,C,]2 [A,,,A,,]2 ||1 [C,,C,]2 [A,,,A,,]2 | [A,,,A,,]!^![A,,,A,,]!^![B,,,B,,]!^![C,,C,] :|2 %22
"_Copyright 1918 by J. BETTY""_Jos.W.Stern et Cᶦᵉ New York""_Staff L. MAILLOCHON, Editeur,31,Place de la Madeleine, Paris" [C,,C,]2 [A,,,A,,]2 | %23
 [D,,D,]!^![D,,D,]!^![E,,E,]!^![F,,F,] |:[K:G] G,,G, D,,G, | G,,G, D,,G, | G,,G, D,,G, | %27
 G,,!^![D,,D,]!^![E,,E,]!^![_E,,_E,] | [G,,D,][D,G,] D,,[D,G,] | G,,[D,G,] D,,[D,G,] | %30
 G,,[D,G,] D,,[D,G,] | [A,,A,]!^![D,,D,]!^![E,,E,]!^![^E,,^E,] | [F,,F,]D, D,,[D,F,] | %33
 F,,[D,F,] !^!D,,[D,F,] | G,,[D,G,] D,,[D,G,] | G,,[D,G,] !^!D,,[D,G,] ||1 A,,[D,F,] A,,[D,F,] | %37
 A,,[D,F,] A,,[D,F,] | [D,F,] !^![D,,D,]2 !^![D,,D,] | !^![D,,D,] z !^![D,,D,] z :|2 %40
 [C,,C,]2 [A,,,A,,]2 | [D,,D,]2 [B,,,B,,]2 | [A,,,A,,][E,G,C] [D,,D,][F,A,] | %43
 [G,,G,] z !^![G,,,G,,] z |:[K:D] [D,,D,]2 [A,,,A,,]2 | [D,,D,]2 [A,,,A,,]2 | [D,,D,]2 [A,,,A,,]2 | %47
 [D,,D,]2 [A,,,A,,]2 | [D,,D,]2 [A,,,A,,]2 | [D,,D,]2 [A,,,A,,]2 | [D,,D,]2 [A,,,A,,]2 | %51
 [D,,D,]2 [A,,,A,,]2 | [C,,C,]2 [A,,,A,,]2 | [C,,C,]2 [A,,,A,,]2 | [C,,C,]2 [A,,,A,,]2 | %55
 [C,,C,]2 [A,,,A,,]2 | [C,,C,]2 [A,,,A,,]2 | [C,,C,]2 [A,,,A,,]2 ||1 [C,,C,]2 [A,,,A,,]2 | %59
 [A,,,A,,]!^![A,,,A,,]!^![B,,,B,,]!^![C,,C,] :|2 [C,,C,]2 [A,,,A,,]2 | [D,,D,] z !^![D,,D,] z |] %62
V:3
 x4 | x4 | x4 | x4 | x4 | x4 |: x4 | x4 | x4 | x4 | x4 | x4 | x4 | x4 | x4 | x4 | x4 | x4 | x4 | %19
 x4 ||1 x4 | x4 :|2 x4 | x4 |:[K:G] x4 | x4 | x4 | x4 | x4 | x4 | x4 | F!^!F!^!G!^!^G | x4 | x4 | %34
 x4 | x4 ||1 x4 | x4 | x4 | x4 :|2 x4 | z [DG]z[GB] | x4 | x4 |:[K:D] x4 | x4 | x4 | x4 | x4 | x4 | %50
 x4 | x4 | x4 | x4 | x4 | x4 | x4 | x4 ||1 x4 | x4 :|2 x4 | x4 |] %62

